public/payments/crypto/polkadot.svg

<svg width="17" height="18" viewBox="0 0 17 18" fill="none" xmlns="http://www.w3.org/2000/svg">
<g clip-path="url(#clip0_256_138)">
<path d="M8.49939 3.77537C10.2998 3.77537 11.7594 2.93022 11.7594 1.88768C11.7594 0.845145 10.2998 0 8.49939 0C6.69894 0 5.23938 0.845145 5.23938 1.88768C5.23938 2.93022 6.69894 3.77537 8.49939 3.77537Z" fill="#E6007A"/>
<path d="M8.49939 17.9987C10.2998 17.9987 11.7594 17.1536 11.7594 16.111C11.7594 15.0685 10.2998 14.2234 8.49939 14.2234C6.69894 14.2234 5.23938 15.0685 5.23938 16.111C5.23938 17.1536 6.69894 17.9987 8.49939 17.9987Z" fill="#E6007A"/>
<path d="M3.95628 6.38837C4.8565 4.83603 4.85066 3.15474 3.94323 2.63312C3.03579 2.1115 1.57039 2.94707 0.670167 4.49941C-0.230061 6.05176 -0.224218 7.73304 0.683217 8.25466C1.59065 8.77628 3.05605 7.94072 3.95628 6.38837Z" fill="#E6007A"/>
<path d="M16.3271 13.4992C17.2273 11.9469 17.222 10.2659 16.3152 9.74459C15.4083 9.22332 13.9434 10.0592 13.0432 11.6115C12.143 13.1639 12.1483 14.8449 13.0552 15.3661C13.962 15.8874 15.4269 15.0515 16.3271 13.4992Z" fill="#E6007A"/>
<path d="M3.94372 15.3657C4.85115 14.8441 4.85699 13.1628 3.95677 11.6104C3.05654 10.0581 1.59114 9.22253 0.683705 9.74415C-0.22373 10.2658 -0.229572 11.9471 0.670655 13.4994C1.57088 15.0517 3.03628 15.8873 3.94372 15.3657Z" fill="#E6007A"/>
<path d="M16.3159 8.25507C17.2227 7.7338 17.2281 6.0528 16.3278 4.50046C15.4276 2.94811 13.9627 2.11226 13.0559 2.63353C12.1491 3.1548 12.1437 4.83579 13.0439 6.38814C13.9442 7.94048 15.4091 8.77634 16.3159 8.25507Z" fill="#E6007A"/>
</g>
<defs>
<clipPath id="clip0_256_138">
<rect width="17" height="18" fill="white"/>
</clipPath>
</defs>
</svg>

<svg xmlns="http://www.w3.org/2000/svg" width="17" height="18" fill="none"><g fill="#E6007A" clip-path="url(#a)"><path d="M8.5 3.78c1.8 0 3.26-.85 3.26-1.9C11.76.86 10.3 0 8.5 0 6.7 0 5.24.85 5.24 1.89S6.7 3.78 8.5 3.78ZM8.5 18c1.8 0 3.26-.85 3.26-1.89s-1.46-1.89-3.26-1.89c-1.8 0-3.26.85-3.26 1.9C5.24 17.14 6.7 18 8.5 18ZM3.96 6.39c.9-1.55.9-3.24-.02-3.76-.9-.52-2.37.32-3.27 1.87-.9 1.55-.9 3.23.01 3.75.91.53 2.38-.3 3.28-1.86ZM16.33 13.5c.9-1.55.9-3.23-.01-3.76-.91-.52-2.38.32-3.28 1.87-.9 1.55-.9 3.23.02 3.76.9.52 2.37-.32 3.27-1.87ZM3.94 15.37c.91-.53.92-2.2.02-3.76-.9-1.55-2.37-2.39-3.28-1.87-.9.53-.91 2.2 0 3.76.9 1.55 2.36 2.39 3.26 1.87ZM16.32 8.26c.9-.53.9-2.2 0-3.76-.9-1.55-2.36-2.39-3.26-1.87-.91.52-.92 2.2-.02 3.76.9 1.55 2.37 2.39 3.28 1.87Z"/></g><defs><clipPath id="a"><path fill="#fff" d="M0 0h17v18H0z"/></clipPath></defs></svg>
